images/3234690.svg

<?xml version="1.0" encoding="UTF-8"?>
<svg xmlns="http://www.w3.org/2000/svg" xmlns:xlink="http://www.w3.org/1999/xlink" width="300pt" height="300pt" viewBox="0 0 300 300" version="1.1">
<defs>
<g>
<symbol overflow="visible" id="glyph0-0">
<path style="stroke:none;" d="M 0.453125 1.59375 L 0.453125 -6.34375 L 4.953125 -6.34375 L 4.953125 1.59375 Z M 0.953125 1.09375 L 4.453125 1.09375 L 4.453125 -5.84375 L 0.953125 -5.84375 Z M 0.953125 1.09375 "/>
</symbol>
<symbol overflow="visible" id="glyph0-1">
<path style="stroke:none;" d="M 0.890625 -6.5625 L 2.078125 -6.5625 L 4.984375 -1.078125 L 4.984375 -6.5625 L 5.84375 -6.5625 L 5.84375 0 L 4.65625 0 L 1.75 -5.484375 L 1.75 0 L 0.890625 0 Z M 0.890625 -6.5625 "/>
</symbol>
<symbol overflow="visible" id="glyph0-2">
<path style="stroke:none;" d="M 3.546875 -5.953125 C 2.898438 -5.953125 2.382812 -5.710938 2 -5.234375 C 1.625 -4.753906 1.4375 -4.101562 1.4375 -3.28125 C 1.4375 -2.445312 1.625 -1.789062 2 -1.3125 C 2.382812 -0.832031 2.898438 -0.59375 3.546875 -0.59375 C 4.191406 -0.59375 4.703125 -0.832031 5.078125 -1.3125 C 5.453125 -1.789062 5.640625 -2.445312 5.640625 -3.28125 C 5.640625 -4.101562 5.453125 -4.753906 5.078125 -5.234375 C 4.703125 -5.710938 4.191406 -5.953125 3.546875 -5.953125 Z M 3.546875 -6.6875 C 4.460938 -6.6875 5.195312 -6.375 5.75 -5.75 C 6.300781 -5.132812 6.578125 -4.3125 6.578125 -3.28125 C 6.578125 -2.238281 6.300781 -1.410156 5.75 -0.796875 C 5.195312 -0.179688 4.460938 0.125 3.546875 0.125 C 2.617188 0.125 1.878906 -0.179688 1.328125 -0.796875 C 0.773438 -1.410156 0.5 -2.238281 0.5 -3.28125 C 0.5 -4.3125 0.773438 -5.132812 1.328125 -5.75 C 1.878906 -6.375 2.617188 -6.6875 3.546875 -6.6875 Z M 3.546875 -6.6875 "/>
</symbol>
<symbol overflow="visible" id="glyph0-3">
<path style="stroke:none;" d="M 0.890625 -6.5625 L 1.765625 -6.5625 L 1.765625 -3.875 L 5 -3.875 L 5 -6.5625 L 5.890625 -6.5625 L 5.890625 0 L 5 0 L 5 -3.125 L 1.765625 -3.125 L 1.765625 0 L 0.890625 0 Z M 0.890625 -6.5625 "/>
</symbol>
</g>
</defs>
<g id="surface42481">
<rect x="0" y="0" width="300" height="300" style="fill:rgb(100%,100%,100%);fill-opacity:1;stroke:none;"/>
<path style="fill:none;stroke-width:1.2;stroke-linecap:butt;stroke-linejoin:miter;stroke:rgb(0%,0%,0%);stroke-opacity:1;stroke-miterlimit:10;" d="M 211.277344 188.109375 L 190.960938 192.046875 "/>
<path style="fill:none;stroke-width:1.2;stroke-linecap:butt;stroke-linejoin:miter;stroke:rgb(0%,0%,0%);stroke-opacity:1;stroke-miterlimit:10;" d="M 218.023438 168.546875 L 211.277344 188.109375 "/>
<path style="fill:none;stroke-width:1;stroke-linecap:butt;stroke-linejoin:miter;stroke:rgb(0%,0%,0%);stroke-opacity:1;stroke-miterlimit:10;" d="M 177.394531 176.421875 L 177.394531 176.421875 M 178.9375 178.996094 L 179.722656 178.3125 M 180.480469 181.570312 L 182.054688 180.199219 M 182.023438 184.140625 L 184.386719 182.089844 M 183.566406 186.714844 L 186.714844 183.980469 M 185.109375 189.285156 L 189.046875 185.867188 M 186.652344 191.859375 L 191.378906 187.757812 M 188.195312 194.429688 L 193.707031 189.644531 M 188.203125 194.441406 L 193.71875 189.652344 "/>
<path style="fill:none;stroke-width:1.2;stroke-linecap:butt;stroke-linejoin:miter;stroke:rgb(0%,0%,0%);stroke-opacity:1;stroke-miterlimit:10;" d="M 177.394531 176.421875 L 168.636719 195.171875 "/>
<path style="fill:none;stroke-width:1.2;stroke-linecap:butt;stroke-linejoin:miter;stroke:rgb(0%,0%,0%);stroke-opacity:1;stroke-miterlimit:10;" d="M 177.394531 176.421875 L 184.140625 156.859375 "/>
<path style="fill:none;stroke-width:1.2;stroke-linecap:butt;stroke-linejoin:miter;stroke:rgb(0%,0%,0%);stroke-opacity:1;stroke-miterlimit:10;" d="M 162.265625 162.300781 L 177.394531 176.421875 "/>
<path style="fill:none;stroke-width:1.2;stroke-linecap:butt;stroke-linejoin:miter;stroke:rgb(0%,0%,0%);stroke-opacity:1;stroke-miterlimit:10;" d="M 168.636719 195.171875 L 148.101562 192.640625 "/>
<path style="fill:none;stroke-width:1.2;stroke-linecap:butt;stroke-linejoin:miter;stroke:rgb(0%,0%,0%);stroke-opacity:1;stroke-miterlimit:10;" d="M 148.101562 192.640625 L 146.132812 182.480469 "/>
<path style="fill:none;stroke-width:1.2;stroke-linecap:butt;stroke-linejoin:miter;stroke:rgb(0%,0%,100%);stroke-opacity:1;stroke-miterlimit:10;" d="M 146.132812 182.480469 L 144.164062 172.324219 "/>
<path style="fill:none;stroke-width:1.2;stroke-linecap:butt;stroke-linejoin:miter;stroke:rgb(0%,0%,100%);stroke-opacity:1;stroke-miterlimit:10;" d="M 144.164062 172.324219 L 153.214844 167.3125 "/>
<path style="fill:none;stroke-width:1.2;stroke-linecap:butt;stroke-linejoin:miter;stroke:rgb(0%,0%,0%);stroke-opacity:1;stroke-miterlimit:10;" d="M 153.214844 167.3125 L 162.265625 162.300781 "/>
<path style="fill:none;stroke-width:1.2;stroke-linecap:butt;stroke-linejoin:miter;stroke:rgb(0%,0%,100%);stroke-opacity:1;stroke-miterlimit:10;" d="M 144.164062 172.324219 L 134.789062 167.945312 "/>
<path style="fill:none;stroke-width:1.2;stroke-linecap:butt;stroke-linejoin:miter;stroke:rgb(0%,0%,0%);stroke-opacity:1;stroke-miterlimit:10;" d="M 134.789062 167.945312 L 125.414062 163.570312 "/>
<path style=" stroke:none;fill-rule:nonzero;fill:rgb(100%,100%,100%);fill-opacity:1;" d="M 141.164062 166.824219 L 148.164062 166.824219 L 148.164062 177.824219 L 141.164062 177.824219 Z M 141.164062 166.824219 "/>
<g style="fill:rgb(0%,0%,100%);fill-opacity:1;">
  <use xlink:href="#glyph0-1" x="141.164062" y="175.487305"/>
</g>
<path style="fill:none;stroke-width:1.2;stroke-linecap:butt;stroke-linejoin:miter;stroke:rgb(0%,0%,0%);stroke-opacity:1;stroke-miterlimit:10;" d="M 124.019531 161.574219 L 115.539062 167.503906 "/>
<path style="fill:none;stroke-width:1.2;stroke-linecap:butt;stroke-linejoin:miter;stroke:rgb(100%,0%,0%);stroke-opacity:1;stroke-miterlimit:10;" d="M 115.539062 167.503906 L 107.0625 173.433594 "/>
<path style="fill:none;stroke-width:1.2;stroke-linecap:butt;stroke-linejoin:miter;stroke:rgb(0%,0%,0%);stroke-opacity:1;stroke-miterlimit:10;" d="M 126.808594 165.5625 L 118.332031 171.492188 "/>
<path style="fill:none;stroke-width:1.2;stroke-linecap:butt;stroke-linejoin:miter;stroke:rgb(100%,0%,0%);stroke-opacity:1;stroke-miterlimit:10;" d="M 118.332031 171.492188 L 109.851562 177.425781 "/>
<path style="fill:none;stroke-width:1.2;stroke-linecap:butt;stroke-linejoin:miter;stroke:rgb(0%,0%,0%);stroke-opacity:1;stroke-miterlimit:10;" d="M 125.414062 163.570312 L 124.515625 153.261719 "/>
<path style="fill:none;stroke-width:1.2;stroke-linecap:butt;stroke-linejoin:miter;stroke:rgb(0%,0%,100%);stroke-opacity:1;stroke-miterlimit:10;" d="M 124.515625 153.261719 L 123.621094 142.953125 "/>
<path style=" stroke:none;fill-rule:nonzero;fill:rgb(100%,100%,100%);fill-opacity:1;" d="M 100.457031 169.929688 L 108.457031 169.929688 L 108.457031 180.929688 L 100.457031 180.929688 Z M 100.457031 169.929688 "/>
<g style="fill:rgb(100%,0%,0%);fill-opacity:1;">
  <use xlink:href="#glyph0-2" x="100.457031" y="178.592773"/>
</g>
<path style="fill:none;stroke-width:1.2;stroke-linecap:butt;stroke-linejoin:miter;stroke:rgb(0%,0%,100%);stroke-opacity:1;stroke-miterlimit:10;" d="M 123.621094 142.953125 L 114.246094 138.574219 "/>
<path style="fill:none;stroke-width:1.2;stroke-linecap:butt;stroke-linejoin:miter;stroke:rgb(0%,0%,0%);stroke-opacity:1;stroke-miterlimit:10;" d="M 114.246094 138.574219 L 104.871094 134.199219 "/>
<path style=" stroke:none;fill-rule:nonzero;fill:rgb(100%,100%,100%);fill-opacity:1;" d="M 116.621094 137.453125 L 130.621094 137.453125 L 130.621094 148.453125 L 116.621094 148.453125 Z M 116.621094 137.453125 "/>
<g style="fill:rgb(0%,0%,100%);fill-opacity:1;">
  <use xlink:href="#glyph0-1" x="116.621094" y="146.116211"/>
  <use xlink:href="#glyph0-3" x="123.598633" y="146.116211"/>
</g>
<path style="fill:none;stroke-width:1.2;stroke-linecap:butt;stroke-linejoin:miter;stroke:rgb(0%,0%,0%);stroke-opacity:1;stroke-miterlimit:10;" d="M 104.871094 134.199219 L 103.078125 113.582031 "/>
<path style="fill:none;stroke-width:1.2;stroke-linecap:butt;stroke-linejoin:miter;stroke:rgb(0%,0%,0%);stroke-opacity:1;stroke-miterlimit:10;" d="M 99.839844 132.558594 L 98.40625 116.066406 "/>
<path style="fill:none;stroke-width:1.2;stroke-linecap:butt;stroke-linejoin:miter;stroke:rgb(0%,0%,0%);stroke-opacity:1;stroke-miterlimit:10;" d="M 87.914062 146.058594 L 104.871094 134.199219 "/>
<path style="fill:none;stroke-width:1.2;stroke-linecap:butt;stroke-linejoin:miter;stroke:rgb(0%,0%,0%);stroke-opacity:1;stroke-miterlimit:10;" d="M 103.078125 113.582031 L 84.328125 104.828125 "/>
<path style="fill:none;stroke-width:1.2;stroke-linecap:butt;stroke-linejoin:miter;stroke:rgb(0%,0%,0%);stroke-opacity:1;stroke-miterlimit:10;" d="M 84.328125 104.828125 L 67.371094 116.6875 "/>
<path style="fill:none;stroke-width:1.2;stroke-linecap:butt;stroke-linejoin:miter;stroke:rgb(0%,0%,0%);stroke-opacity:1;stroke-miterlimit:10;" d="M 85.425781 110.003906 L 71.859375 119.492188 "/>
<path style="fill:none;stroke-width:1.2;stroke-linecap:butt;stroke-linejoin:miter;stroke:rgb(0%,0%,0%);stroke-opacity:1;stroke-miterlimit:10;" d="M 67.371094 116.6875 L 69.164062 137.300781 "/>
<path style="fill:none;stroke-width:1.2;stroke-linecap:butt;stroke-linejoin:miter;stroke:rgb(0%,0%,0%);stroke-opacity:1;stroke-miterlimit:10;" d="M 69.164062 137.300781 L 87.914062 146.058594 "/>
<path style="fill:none;stroke-width:1.2;stroke-linecap:butt;stroke-linejoin:miter;stroke:rgb(0%,0%,0%);stroke-opacity:1;stroke-miterlimit:10;" d="M 73.101562 133.765625 L 88.097656 140.769531 "/>
<path style="fill:none;stroke-width:1.2;stroke-linecap:butt;stroke-linejoin:miter;stroke:rgb(0%,0%,0%);stroke-opacity:1;stroke-miterlimit:10;" d="M 69.164062 137.300781 L 52.207031 149.164062 "/>
<path style="fill:none;stroke-width:1.2;stroke-linecap:butt;stroke-linejoin:miter;stroke:rgb(0%,0%,0%);stroke-opacity:1;stroke-miterlimit:10;" d="M 52.207031 149.164062 L 43.730469 155.09375 "/>
<path style="fill:none;stroke-width:1.2;stroke-linecap:butt;stroke-linejoin:miter;stroke:rgb(0%,0%,100%);stroke-opacity:1;stroke-miterlimit:10;" d="M 43.730469 155.09375 L 35.25 161.023438 "/>
<path style="fill:none;stroke-width:1.2;stroke-linecap:butt;stroke-linejoin:miter;stroke:rgb(0%,0%,0%);stroke-opacity:1;stroke-miterlimit:10;" d="M 47.722656 146.359375 L 40.9375 151.101562 "/>
<path style="fill:none;stroke-width:1.2;stroke-linecap:butt;stroke-linejoin:miter;stroke:rgb(0%,0%,100%);stroke-opacity:1;stroke-miterlimit:10;" d="M 40.9375 151.101562 L 34.15625 155.847656 "/>
<path style="fill:none;stroke-width:1.2;stroke-linecap:butt;stroke-linejoin:miter;stroke:rgb(0%,0%,0%);stroke-opacity:1;stroke-miterlimit:10;" d="M 53.300781 154.339844 L 46.519531 159.082031 "/>
<path style="fill:none;stroke-width:1.2;stroke-linecap:butt;stroke-linejoin:miter;stroke:rgb(0%,0%,100%);stroke-opacity:1;stroke-miterlimit:10;" d="M 46.519531 159.082031 L 39.734375 163.824219 "/>
<path style=" stroke:none;fill-rule:nonzero;fill:rgb(100%,100%,100%);fill-opacity:1;" d="M 28.25 155.523438 L 35.25 155.523438 L 35.25 166.523438 L 28.25 166.523438 Z M 28.25 155.523438 "/>
<g style="fill:rgb(0%,0%,100%);fill-opacity:1;">
  <use xlink:href="#glyph0-1" x="28.25" y="164.186523"/>
</g>
<path style="fill:none;stroke-width:1.2;stroke-linecap:butt;stroke-linejoin:miter;stroke:rgb(0%,0%,0%);stroke-opacity:1;stroke-miterlimit:10;" d="M 184.140625 156.859375 L 194.300781 154.890625 "/>
<path style="fill:none;stroke-width:1.2;stroke-linecap:butt;stroke-linejoin:miter;stroke:rgb(0%,0%,100%);stroke-opacity:1;stroke-miterlimit:10;" d="M 194.300781 154.890625 L 204.457031 152.921875 "/>
<path style="fill:none;stroke-width:1.2;stroke-linecap:butt;stroke-linejoin:miter;stroke:rgb(0%,0%,100%);stroke-opacity:1;stroke-miterlimit:10;" d="M 204.457031 152.921875 L 211.242188 160.734375 "/>
<path style="fill:none;stroke-width:1.2;stroke-linecap:butt;stroke-linejoin:miter;stroke:rgb(0%,0%,0%);stroke-opacity:1;stroke-miterlimit:10;" d="M 211.242188 160.734375 L 218.023438 168.546875 "/>
<path style="fill:none;stroke-width:1.2;stroke-linecap:butt;stroke-linejoin:miter;stroke:rgb(0%,0%,100%);stroke-opacity:1;stroke-miterlimit:10;" d="M 204.457031 152.921875 L 207.832031 143.144531 "/>
<path style="fill:none;stroke-width:1.2;stroke-linecap:butt;stroke-linejoin:miter;stroke:rgb(0%,0%,0%);stroke-opacity:1;stroke-miterlimit:10;" d="M 207.832031 143.144531 L 211.203125 133.363281 "/>
<path style=" stroke:none;fill-rule:nonzero;fill:rgb(100%,100%,100%);fill-opacity:1;" d="M 201.457031 147.421875 L 208.457031 147.421875 L 208.457031 158.421875 L 201.457031 158.421875 Z M 201.457031 147.421875 "/>
<g style="fill:rgb(0%,0%,100%);fill-opacity:1;">
  <use xlink:href="#glyph0-1" x="201.457031" y="156.084961"/>
</g>
<path style="fill:none;stroke-width:1.2;stroke-linecap:butt;stroke-linejoin:miter;stroke:rgb(0%,0%,0%);stroke-opacity:1;stroke-miterlimit:10;" d="M 213.042969 131.765625 L 206.257812 123.953125 "/>
<path style="fill:none;stroke-width:1.2;stroke-linecap:butt;stroke-linejoin:miter;stroke:rgb(100%,0%,0%);stroke-opacity:1;stroke-miterlimit:10;" d="M 206.257812 123.953125 L 199.476562 116.140625 "/>
<path style="fill:none;stroke-width:1.2;stroke-linecap:butt;stroke-linejoin:miter;stroke:rgb(0%,0%,0%);stroke-opacity:1;stroke-miterlimit:10;" d="M 209.367188 134.957031 L 202.582031 127.144531 "/>
<path style="fill:none;stroke-width:1.2;stroke-linecap:butt;stroke-linejoin:miter;stroke:rgb(100%,0%,0%);stroke-opacity:1;stroke-miterlimit:10;" d="M 202.582031 127.144531 L 195.796875 119.332031 "/>
<path style="fill:none;stroke-width:1.2;stroke-linecap:butt;stroke-linejoin:miter;stroke:rgb(0%,0%,0%);stroke-opacity:1;stroke-miterlimit:10;" d="M 211.203125 133.363281 L 231.519531 129.425781 "/>
<path style=" stroke:none;fill-rule:nonzero;fill:rgb(100%,100%,100%);fill-opacity:1;" d="M 189.636719 112.238281 L 197.636719 112.238281 L 197.636719 123.238281 L 189.636719 123.238281 Z M 189.636719 112.238281 "/>
<g style="fill:rgb(100%,0%,0%);fill-opacity:1;">
  <use xlink:href="#glyph0-2" x="189.636719" y="120.901367"/>
</g>
<path style="fill:none;stroke-width:1.2;stroke-linecap:butt;stroke-linejoin:miter;stroke:rgb(0%,0%,0%);stroke-opacity:1;stroke-miterlimit:10;" d="M 231.519531 129.425781 L 240.273438 110.675781 "/>
<path style="fill:none;stroke-width:1.2;stroke-linecap:butt;stroke-linejoin:miter;stroke:rgb(0%,0%,0%);stroke-opacity:1;stroke-miterlimit:10;" d="M 236.808594 129.609375 L 243.8125 114.609375 "/>
<path style="fill:none;stroke-width:1.2;stroke-linecap:butt;stroke-linejoin:miter;stroke:rgb(100%,0%,0%);stroke-opacity:1;stroke-miterlimit:10;" d="M 246.644531 143.546875 L 239.082031 136.484375 "/>
<path style="fill:none;stroke-width:1.2;stroke-linecap:butt;stroke-linejoin:miter;stroke:rgb(0%,0%,0%);stroke-opacity:1;stroke-miterlimit:10;" d="M 239.082031 136.484375 L 231.519531 129.425781 "/>
<path style="fill:none;stroke-width:1.2;stroke-linecap:butt;stroke-linejoin:miter;stroke:rgb(0%,0%,0%);stroke-opacity:1;stroke-miterlimit:10;" d="M 240.273438 110.675781 L 260.8125 113.207031 "/>
<path style="fill:none;stroke-width:1.2;stroke-linecap:butt;stroke-linejoin:miter;stroke:rgb(0%,0%,0%);stroke-opacity:1;stroke-miterlimit:10;" d="M 260.8125 113.207031 L 264.75 133.523438 "/>
<path style="fill:none;stroke-width:1.2;stroke-linecap:butt;stroke-linejoin:miter;stroke:rgb(0%,0%,0%);stroke-opacity:1;stroke-miterlimit:10;" d="M 256.425781 116.164062 L 259.578125 132.417969 "/>
<path style="fill:none;stroke-width:1.2;stroke-linecap:butt;stroke-linejoin:miter;stroke:rgb(0%,0%,0%);stroke-opacity:1;stroke-miterlimit:10;" d="M 264.75 133.523438 L 255.699219 138.535156 "/>
<path style="fill:none;stroke-width:1.2;stroke-linecap:butt;stroke-linejoin:miter;stroke:rgb(100%,0%,0%);stroke-opacity:1;stroke-miterlimit:10;" d="M 255.699219 138.535156 L 246.644531 143.546875 "/>
<path style=" stroke:none;fill-rule:nonzero;fill:rgb(100%,100%,100%);fill-opacity:1;" d="M 242.644531 138.046875 L 250.644531 138.046875 L 250.644531 149.046875 L 242.644531 149.046875 Z M 242.644531 138.046875 "/>
<g style="fill:rgb(100%,0%,0%);fill-opacity:1;">
  <use xlink:href="#glyph0-2" x="242.644531" y="146.709961"/>
</g>
</g>
</svg>

<svg xmlns="http://www.w3.org/2000/svg" xmlns:xlink="http://www.w3.org/1999/xlink" width="300pt" height="300pt" viewBox="0 0 300 300"><defs><symbol overflow="visible"><path d="M.453 1.594v-7.938h4.5v7.938zm.5-.5h3.5v-6.938h-3.5zm0 0"/></symbol><symbol overflow="visible" id="a"><path d="M.89-6.563H2.08l2.906 5.485v-5.484h.86V0H4.656L1.75-5.484V0H.89zm0 0"/></symbol><symbol overflow="visible" id="b"><path d="M3.547-5.953c-.65 0-1.164.242-1.547.72-.375.48-.563 1.13-.563 1.952 0 .835.188 1.49.563 1.967.383.48.898.72 1.547.72.644 0 1.156-.24 1.53-.72.376-.476.564-1.132.564-1.968 0-.822-.187-1.474-.562-1.954-.375-.477-.887-.72-1.53-.72zm0-.734c.914 0 1.648.312 2.203.937.55.617.828 1.438.828 2.47 0 1.042-.277 1.87-.828 2.483-.555.617-1.29.922-2.203.922-.93 0-1.668-.305-2.22-.922C.774-1.41.5-2.237.5-3.28c0-1.033.273-1.853.828-2.47.55-.625 1.29-.938 2.22-.938zm0 0"/></symbol><symbol overflow="visible" id="c"><path d="M.89-6.563h.876v2.688H5v-2.688h.89V0H5v-3.125H1.766V0H.89zm0 0"/></symbol></defs><g><path fill="#fff" d="M0 0h300v300H0z"/><path d="M211.277 188.11l-20.316 3.937M218.023 168.547l-6.746 19.562" stroke-width="1.2" stroke="#000" stroke-miterlimit="10" fill="none"/><path d="M177.395 176.422m1.542 2.574l.786-.684m.757 3.258l1.575-1.37m-.032 3.94l2.364-2.05m-.82 4.625l3.148-2.735m-1.606 5.305l3.937-3.418m-2.395 5.992l4.727-4.102m-3.185 6.672l5.512-4.785m-5.504 4.796l5.516-4.788" stroke="#000" stroke-miterlimit="10" fill="none"/><path d="M177.395 176.422l-8.758 18.75M177.395 176.422l6.746-19.563M162.266 162.3l15.13 14.122M168.637 195.172l-20.535-2.53M148.102 192.64l-1.97-10.16" stroke-width="1.2" stroke="#000" stroke-miterlimit="10" fill="none"/><path d="M146.133 182.48l-1.97-10.156M144.164 172.324l9.05-5.012" stroke-width="1.2" stroke="#00f" stroke-miterlimit="10" fill="none"/><path d="M153.215 167.313l9.05-5.012" stroke-width="1.2" stroke="#000" stroke-miterlimit="10" fill="none"/><path d="M144.164 172.324l-9.375-4.38" stroke-width="1.2" stroke="#00f" stroke-miterlimit="10" fill="none"/><path d="M134.79 167.945l-9.376-4.375" stroke-width="1.2" stroke="#000" stroke-miterlimit="10" fill="none"/><path d="M141.164 166.824h7v11h-7zm0 0" fill="#fff"/><use xlink:href="#a" x="141.164" y="175.487" fill="#00f"/><path d="M124.02 161.574l-8.48 5.93" stroke-width="1.2" stroke="#000" stroke-miterlimit="10" fill="none"/><path d="M115.54 167.504l-8.478 5.93" stroke-width="1.2" stroke="#f00" stroke-miterlimit="10" fill="none"/><path d="M126.81 165.563l-8.478 5.93" stroke-width="1.2" stroke="#000" stroke-miterlimit="10" fill="none"/><path d="M118.332 171.492l-8.48 5.934" stroke-width="1.2" stroke="#f00" stroke-miterlimit="10" fill="none"/><path d="M125.414 163.57l-.898-10.308" stroke-width="1.2" stroke="#000" stroke-miterlimit="10" fill="none"/><path d="M124.516 153.262l-.895-10.31" stroke-width="1.2" stroke="#00f" stroke-miterlimit="10" fill="none"/><path d="M100.457 169.93h8v11h-8zm0 0" fill="#fff"/><use xlink:href="#b" x="100.457" y="178.593" fill="#f00"/><path d="M123.62 142.953l-9.374-4.38" stroke-width="1.2" stroke="#00f" stroke-miterlimit="10" fill="none"/><path d="M114.246 138.574l-9.375-4.375" stroke-width="1.2" stroke="#000" stroke-miterlimit="10" fill="none"/><path d="M116.62 137.453h14v11h-14zm0 0" fill="#fff"/><g fill="#00f"><use xlink:href="#a" x="116.621" y="146.116"/><use xlink:href="#c" x="123.599" y="146.116"/></g><path d="M104.87 134.2l-1.792-20.618M99.84 132.56l-1.434-16.494M87.914 146.06l16.957-11.86M103.078 113.582l-18.75-8.754M84.328 104.828l-16.957 11.86M85.426 110.004l-13.567 9.488M67.37 116.688l1.794 20.613M69.164 137.3l18.75 8.76M73.102 133.766l14.996 7.004M69.164 137.3l-16.957 11.864M52.207 149.164l-8.477 5.93" stroke-width="1.2" stroke="#000" stroke-miterlimit="10" fill="none"/><path d="M43.73 155.094l-8.48 5.93" stroke-width="1.2" stroke="#00f" stroke-miterlimit="10" fill="none"/><path d="M47.723 146.36l-6.785 4.742" stroke-width="1.2" stroke="#000" stroke-miterlimit="10" fill="none"/><path d="M40.938 151.102l-6.782 4.746" stroke-width="1.2" stroke="#00f" stroke-miterlimit="10" fill="none"/><path d="M53.3 154.34l-6.78 4.742" stroke-width="1.2" stroke="#000" stroke-miterlimit="10" fill="none"/><path d="M46.52 159.082l-6.786 4.742" stroke-width="1.2" stroke="#00f" stroke-miterlimit="10" fill="none"/><path d="M28.25 155.523h7v11h-7zm0 0" fill="#fff"/><use xlink:href="#a" x="28.25" y="164.187" fill="#00f"/><path d="M184.14 156.86l10.16-1.97" stroke-width="1.2" stroke="#000" stroke-miterlimit="10" fill="none"/><path d="M194.3 154.89l10.157-1.968M204.457 152.922l6.785 7.812" stroke-width="1.2" stroke="#00f" stroke-miterlimit="10" fill="none"/><path d="M211.242 160.734l6.78 7.813" stroke-width="1.2" stroke="#000" stroke-miterlimit="10" fill="none"/><path d="M204.457 152.922l3.375-9.777" stroke-width="1.2" stroke="#00f" stroke-miterlimit="10" fill="none"/><path d="M207.832 143.145l3.37-9.782" stroke-width="1.2" stroke="#000" stroke-miterlimit="10" fill="none"/><path d="M201.457 147.422h7v11h-7zm0 0" fill="#fff"/><use xlink:href="#a" x="201.457" y="156.085" fill="#00f"/><path d="M213.043 131.766l-6.785-7.813" stroke-width="1.2" stroke="#000" stroke-miterlimit="10" fill="none"/><path d="M206.258 123.953l-6.78-7.812" stroke-width="1.2" stroke="#f00" stroke-miterlimit="10" fill="none"/><path d="M209.367 134.957l-6.785-7.812" stroke-width="1.2" stroke="#000" stroke-miterlimit="10" fill="none"/><path d="M202.582 127.145l-6.785-7.813" stroke-width="1.2" stroke="#f00" stroke-miterlimit="10" fill="none"/><path d="M211.203 133.363l20.317-3.937" stroke-width="1.2" stroke="#000" stroke-miterlimit="10" fill="none"/><path d="M189.637 112.238h8v11h-8zm0 0" fill="#fff"/><use xlink:href="#b" x="189.637" y="120.901" fill="#f00"/><path d="M231.52 129.426l8.753-18.75M236.81 129.61l7.002-15" stroke-width="1.2" stroke="#000" stroke-miterlimit="10" fill="none"/><path d="M246.645 143.547l-7.563-7.063" stroke-width="1.2" stroke="#f00" stroke-miterlimit="10" fill="none"/><path d="M239.082 136.484l-7.562-7.058M240.273 110.676l20.54 2.53M260.813 113.207l3.937 20.316M256.426 116.164l3.152 16.254M264.75 133.523l-9.05 5.012" stroke-width="1.2" stroke="#000" stroke-miterlimit="10" fill="none"/><path d="M255.7 138.535l-9.055 5.012" stroke-width="1.2" stroke="#f00" stroke-miterlimit="10" fill="none"/><path d="M242.645 138.047h8v11h-8zm0 0" fill="#fff"/><use xlink:href="#b" x="242.645" y="146.71" fill="#f00"/></g></svg>
